src/assets/icons/cube.svg

<svg width="20" height="20" viewBox="0 0 20 20" fill="none" xmlns="http://www.w3.org/2000/svg">
<path d="M10.3149 1.33514C10.1203 1.22162 9.87968 1.22162 9.68508 1.33514L2.5 5.52643L10 9.90143L17.5 5.52643L10.3149 1.33514Z" fill="#999999"/>
<path d="M18.125 6.60898L10.625 10.984V18.484L17.8149 14.2899C18.0069 14.1779 18.125 13.9723 18.125 13.75V6.60898Z" fill="#999999"/>
<path d="M9.375 18.484V10.984L1.875 6.60898V13.75C1.875 13.9723 1.99307 14.1779 2.18508 14.2899L9.375 18.484Z" fill="#999999"/>
</svg>

<svg xmlns="http://www.w3.org/2000/svg" width="20" height="20" fill="#999" xmlns:v="https://vecta.io/nano"><path d="M10.315 1.335c-.195-.114-.435-.114-.63 0L2.5 5.526 10 9.901l7.5-4.375-7.185-4.191zm7.81 5.274l-7.5 4.375v7.5l7.19-4.194c.192-.112.31-.318.31-.54V6.609zm-8.75 11.875v-7.5l-7.5-4.375v7.141c0 .222.118.428.31.54l7.19 4.194z"/></svg>
